img/svg/icon-font/menu.svg

<svg width="22" height="20" viewBox="0 0 22 20" fill="none" xmlns="http://www.w3.org/2000/svg">
<path fill-rule="evenodd" clip-rule="evenodd" d="M3.4375 0H6.70312C8.59856 0 10.1406 1.40188 10.1406 3.125V6.09375C10.1406 7.81687 8.59856 9.21875 6.70312 9.21875H3.4375C1.54206 9.21875 0 7.81687 0 6.09375V3.125C0 1.40188 1.54206 0 3.4375 0ZM6.70312 7.65625C7.65084 7.65625 8.42188 6.95531 8.42188 6.09375V3.125C8.42188 2.26344 7.65084 1.5625 6.70312 1.5625H3.4375C2.48978 1.5625 1.71875 2.26344 1.71875 3.125V6.09375C1.71875 6.95531 2.48978 7.65625 3.4375 7.65625H6.70312ZM15.2969 0H18.5625C20.4579 0 22 1.40188 22 3.125V6.09375C22 7.81687 20.4579 9.21875 18.5625 9.21875H15.2969C13.4014 9.21875 11.8594 7.81687 11.8594 6.09375V3.125C11.8594 1.40188 13.4014 0 15.2969 0ZM18.5625 7.65625C19.5102 7.65625 20.2812 6.95531 20.2812 6.09375V3.125C20.2812 2.26344 19.5102 1.5625 18.5625 1.5625H15.2969C14.3492 1.5625 13.5781 2.26344 13.5781 3.125V6.09375C13.5781 6.95531 14.3492 7.65625 15.2969 7.65625H18.5625ZM6.70312 10.7812H3.4375C1.54206 10.7812 0 12.1831 0 13.9062V16.875C0 18.5981 1.54206 20 3.4375 20H6.70312C8.59856 20 10.1406 18.5981 10.1406 16.875V13.9062C10.1406 12.1831 8.59856 10.7812 6.70312 10.7812ZM8.42188 16.875C8.42188 17.7366 7.65084 18.4375 6.70312 18.4375H3.4375C2.48978 18.4375 1.71875 17.7366 1.71875 16.875V13.9062C1.71875 13.0447 2.48978 12.3438 3.4375 12.3438H6.70312C7.65084 12.3438 8.42188 13.0447 8.42188 13.9062V16.875ZM20.2812 16.875C20.2812 16.4435 20.666 16.0938 21.1406 16.0938C21.6153 16.0938 22 16.4435 22 16.875C22 18.5981 20.4579 20 18.5625 20H15.2969C13.4014 20 11.8594 18.5981 11.8594 16.875V13.9062C11.8594 12.1831 13.4014 10.7812 15.2969 10.7812H18.5625C19.9289 10.7812 21.1656 11.5168 21.7132 12.6551C21.9033 13.0504 21.705 13.511 21.2701 13.6839C20.8352 13.8567 20.3285 13.6764 20.1384 13.2811C19.8645 12.7117 19.2459 12.3438 18.5625 12.3438H15.2969C14.3492 12.3438 13.5781 13.0447 13.5781 13.9062V16.875C13.5781 17.7366 14.3492 18.4375 15.2969 18.4375H18.5625C19.5102 18.4375 20.2812 17.7366 20.2812 16.875Z" fill="#4C51CB"/>
</svg>

<svg width="22" height="20" fill="none" xmlns="http://www.w3.org/2000/svg"><path fill-rule="evenodd" clip-rule="evenodd" d="M3.438 0h3.265c1.896 0 3.438 1.402 3.438 3.125v2.969c0 1.723-1.542 3.125-3.438 3.125H3.437C1.542 9.219 0 7.817 0 6.094V3.125C0 1.402 1.542 0 3.438 0zm3.265 7.656c.948 0 1.719-.7 1.719-1.562V3.125c0-.862-.771-1.563-1.719-1.563H3.437c-.947 0-1.718.701-1.718 1.563v2.969c0 .861.77 1.562 1.718 1.562h3.266zM15.297 0h3.265C20.459 0 22 1.402 22 3.125v2.969c0 1.723-1.542 3.125-3.438 3.125h-3.265c-1.896 0-3.438-1.402-3.438-3.125V3.125C11.86 1.402 13.401 0 15.297 0zm3.265 7.656c.948 0 1.72-.7 1.72-1.562V3.125c0-.862-.772-1.563-1.72-1.563h-3.265c-.948 0-1.719.701-1.719 1.563v2.969c0 .861.771 1.562 1.719 1.562h3.265zM6.704 10.781H3.437C1.542 10.781 0 12.183 0 13.906v2.969C0 18.598 1.542 20 3.438 20h3.265c1.896 0 3.438-1.402 3.438-3.125v-2.969c0-1.723-1.542-3.125-3.438-3.125zm1.719 6.094c0 .862-.771 1.563-1.719 1.563H3.437c-.947 0-1.718-.701-1.718-1.563v-2.969c0-.861.77-1.562 1.718-1.562h3.266c.948 0 1.719.7 1.719 1.562v2.969zm11.86 0c0-.431.384-.781.859-.781.474 0 .859.35.859.781C22 18.598 20.458 20 18.562 20h-3.265c-1.896 0-3.438-1.402-3.438-3.125v-2.969c0-1.723 1.542-3.125 3.438-3.125h3.265c1.367 0 2.604.736 3.151 1.874.19.395-.008.856-.443 1.029-.435.173-.942-.008-1.132-.403-.274-.57-.892-.937-1.576-.937h-3.265c-.948 0-1.719.7-1.719 1.562v2.969c0 .862.771 1.563 1.719 1.563h3.265c.948 0 1.72-.701 1.72-1.563z" fill="#4C51CB"/></svg>
